X: 1
T: Reel Made with Hilda
C: Hilda Chiasson & Jerry Holland
R: reel
S: handout for Wendy MacIsaac online workshop 2022-2-21
D: "Lively Steps", casette, 1988, Fiddlesticks
Z: 2022 John Chambers <jc:trillian.mit.edu>
%%slurgraces yes
%%graceslurs yes
M: C|
L: 1/8
K: E
"^A"|: c |\
BEGB {B}e2eg | fBdf Tgfec | BEGB {B}e2eB |[1 cABG F/F/F F :|
|[2 cABG E/E/E E "^B"|: g | fBdf afdf | eBef T(ge)bg | fBdf gebg |
fdec B/B/B Bg || fBdf afdf | eBef gebg | Acea gefd | e2E2 E3 :|
